X: 6
T: The Flooded Road To Glenties
R: reel
M: 4/4
L: 1/8
K: Edor
|:E|cF F2 GcBG|GcBG FEcB|cF F2 Geec|dcBd c3B|
cecB GcBG|F3E ABcd|ec c2 cBGF|GcBG F3:|
|:G|AF F2 eFdF|cF F2 GFEG|AF F2 efec|dcBd c3B|
cecB GcBG|F3E ABcd|ec c2 cBGF|GcBG F3:|


Tune 3440	Setting 3440

